public/avatar/shoe/23.svg

<svg xmlns:xlink="http://www.w3.org/1999/xlink" height="38.3" width="36.05" xmlns="http://www.w3.org/2000/svg"><use height="15.75" transform="translate(10.65 12.35)" width="21.4" xlink:href="#a"/><defs><g id="a"><path d="M.9.75.05.05-1.7-.4h-.45l-2.05.35 2.05-.35h.45L.05.05l.85.7m-13.55 9.75q-.1-1.5 1.2-2.35l2.15-1.5Q-6.95 4.75-5.7 2-5.15.8-4.2-.05q.95-.9 2.35-1.4 2.7-1 5.3-.1Q6.05-.5 7.4 2L6 2.4q-2.65.85-4.2 3.2Q.35 7.75-1.95 9.35q-2.5 1.8-5.5 1.9l-5.2-.75m5.95-3.35 1.55-1.6L-4 3.8l.9-2.05.6-1.1.8-1.05-.8 1.05-.6 1.1L-4 3.8l-1.15 1.75-1.55 1.6" fill="#f39" fill-rule="evenodd" transform="translate(13.15 2.5)"/><path d="M7.4 2q.6 1.65.15 3.7-.55 2-.2 3.8L6 10.2l-.25-3.1Q5.5 5.5 4.4 6.05l-.15.1q-.95.4-1.6 1.3-.75.95-1.1 2.05-.3.95-.45 2.1l-1.2.3q-7.05 1.75-11.7 0l-.5-.3-.35-1.1 5.2.75q3-.1 5.5-1.9Q.35 7.75 1.8 5.6 3.35 3.25 6 2.4L7.4 2" fill="#fff" fill-rule="evenodd" transform="translate(13.15 2.5)"/><path d="M6 10.2q-.95-.05-1.55-.75v-1.7l-.2-1.6.15-.1Q5.5 5.5 5.75 7.1L6 10.2" fill-rule="evenodd" transform="translate(13.15 2.5)"/><path d="m-4.2-.05 2.05-.35h.45L.05.05l.85.7m-13.55 9.75q-.1-1.5 1.2-2.35l2.15-1.5Q-6.95 4.75-5.7 2-5.15.8-4.2-.05q.95-.9 2.35-1.4 2.7-1 5.3-.1Q6.05-.5 7.4 2q.6 1.65.15 3.7-.55 2-.2 3.8L6 10.2q-.95-.05-1.55-.75v-1.7l-.2-1.6q-.95.4-1.6 1.3-.75.95-1.1 2.05-.3.95-.45 2.1l-1.2.3q-7.05 1.75-11.7 0l-.5-.3-.35-1.1M-1.7-.4-2.5.65l-.6 1.1L-4 3.8l-1.15 1.75-1.55 1.6" fill="none" stroke="#000" stroke-linecap="round" stroke-linejoin="round" transform="translate(13.15 2.5)"/></g></defs></svg>

<?xml version="1.0" encoding="UTF-8" standalone="no"?>
<svg xmlns:xlink="http://www.w3.org/1999/xlink" height="38.3px" width="36.05px" xmlns="http://www.w3.org/2000/svg">
  <g transform="matrix(1.0, 0.0, 0.0, 1.0, 23.8, 14.85)">
    <use height="15.75" transform="matrix(1.0, 0.0, 0.0, 1.0, -13.15, -2.5)" width="21.4" xlink:href="#shape0"/>
  </g>
  <defs>
    <g id="shape0" transform="matrix(1.0, 0.0, 0.0, 1.0, 13.15, 2.5)">
      <path d="M0.9 0.75 L0.05 0.05 -1.7 -0.4 -2.15 -0.4 -4.2 -0.05 -2.15 -0.4 -1.7 -0.4 0.05 0.05 0.9 0.75 M-12.65 10.5 Q-12.75 9.0 -11.45 8.15 L-9.3 6.65 Q-6.95 4.75 -5.7 2.0 -5.15 0.8 -4.2 -0.05 -3.25 -0.95 -1.85 -1.45 0.85 -2.45 3.45 -1.55 6.05 -0.5 7.4 2.0 L6.0 2.4 Q3.35 3.25 1.8 5.6 0.35 7.75 -1.95 9.35 -4.45 11.15 -7.45 11.25 L-12.65 10.5 M-6.7 7.15 L-5.15 5.55 -4.0 3.8 -3.1 1.75 -2.5 0.65 -1.7 -0.4 -2.5 0.65 -3.1 1.75 -4.0 3.8 -5.15 5.55 -6.7 7.15" fill="#ff3399" fill-rule="evenodd" stroke="none"/>
      <path d="M7.4 2.0 Q8.0 3.65 7.55 5.7 7.0 7.7 7.35 9.5 L6.0 10.2 5.75 7.1 Q5.5 5.5 4.4 6.05 L4.25 6.15 Q3.3 6.55 2.65 7.45 1.9 8.4 1.55 9.5 1.25 10.45 1.1 11.6 L-0.1 11.9 Q-7.15 13.65 -11.8 11.9 L-12.3 11.6 -12.65 10.5 -7.45 11.25 Q-4.45 11.15 -1.95 9.35 0.35 7.75 1.8 5.6 3.35 3.25 6.0 2.4 L7.4 2.0" fill="#ffffff" fill-rule="evenodd" stroke="none"/>
      <path d="M6.0 10.2 Q5.05 10.15 4.45 9.45 L4.45 7.75 4.25 6.15 4.4 6.05 Q5.5 5.5 5.75 7.1 L6.0 10.2" fill="#000000" fill-rule="evenodd" stroke="none"/>
      <path d="M-4.2 -0.05 L-2.15 -0.4 -1.7 -0.4 0.05 0.05 0.9 0.75 M-12.65 10.5 Q-12.75 9.0 -11.45 8.15 L-9.3 6.65 Q-6.95 4.75 -5.7 2.0 -5.15 0.8 -4.2 -0.05 -3.25 -0.95 -1.85 -1.45 0.85 -2.45 3.45 -1.55 6.05 -0.5 7.4 2.0 8.0 3.65 7.55 5.7 7.0 7.7 7.35 9.5 L6.0 10.2 Q5.05 10.15 4.45 9.45 L4.45 7.75 4.25 6.15 Q3.3 6.55 2.65 7.45 1.9 8.4 1.55 9.5 1.25 10.45 1.1 11.6 L-0.1 11.9 Q-7.15 13.65 -11.8 11.9 L-12.3 11.6 -12.65 10.5 M-1.7 -0.4 L-2.5 0.65 -3.1 1.75 -4.0 3.8 -5.15 5.55 -6.7 7.15" fill="none" stroke="#000000" stroke-linecap="round" stroke-linejoin="round" stroke-width="1.0"/>
    </g>
  </defs>
</svg>
